packages/kaspersky-hexa-ui-icons/src/iconsSVGs/16/InsuranceCoverage.svg

<svg width="16" height="16" viewBox="0 0 16 16" fill="none" xmlns="http://www.w3.org/2000/svg">
<path d="M7.32531 6.39701C7.17699 6.51109 7.11545 6.63948 7.11545 6.77448C7.11545 6.9233 7.14879 7.01118 7.18343 7.0671C7.21917 7.12478 7.27972 7.18593 7.38836 7.24413C7.53423 7.32228 7.67929 7.35013 7.93623 7.35013C7.95161 7.35013 7.96686 7.35067 7.98197 7.35172C8.3099 7.36081 8.65809 7.4135 9.02531 7.61023C9.29678 7.75566 9.54422 7.96246 9.72144 8.24851C9.89975 8.53631 9.98434 8.86792 9.98434 9.22581C9.98434 9.83715 9.6729 10.3216 9.26703 10.6337C9.04983 10.8008 8.79937 10.9249 8.53584 11.0031V11.3335C8.53584 11.6925 8.24482 11.9835 7.88584 11.9835C7.52685 11.9835 7.23584 11.6925 7.23584 11.3335V11.0157C6.68786 10.8595 6.23966 10.4989 5.92013 10.0063C5.72476 9.70516 5.81053 9.30264 6.1117 9.10727C6.41287 8.91191 6.81539 8.99768 7.01076 9.29885C7.23644 9.64675 7.52106 9.80147 7.86354 9.80147C8.09161 9.80146 8.31793 9.72368 8.47448 9.60328C8.6228 9.4892 8.68434 9.36081 8.68434 9.22581C8.68434 9.07699 8.651 8.9891 8.61635 8.93318C8.58062 8.87551 8.52007 8.81436 8.41142 8.75616C8.26555 8.67801 8.12049 8.65015 7.86355 8.65015C7.84818 8.65015 7.83293 8.64962 7.81783 8.64857C7.48989 8.63947 7.14171 8.58679 6.77448 8.39006C6.50301 8.24463 6.25557 8.03782 6.07835 7.75178C5.90003 7.46398 5.81544 7.13237 5.81544 6.77448C5.81544 6.16313 6.12689 5.67871 6.53275 5.36654C6.74222 5.20544 6.98261 5.08427 7.23584 5.00568V4.6668C7.23584 4.30782 7.52685 4.0168 7.88584 4.0168C8.24482 4.0168 8.53584 4.30782 8.53584 4.6668V4.97682C9.09661 5.12854 9.55468 5.49298 9.87966 5.99396C10.075 6.29513 9.98925 6.69765 9.68808 6.89301C9.38691 7.08838 8.98439 7.00261 8.78903 6.70144C8.56335 6.35354 8.27873 6.19881 7.93625 6.19882C7.70817 6.19882 7.48186 6.2766 7.32531 6.39701Z" fill="black"/>
<path fill-rule="evenodd" clip-rule="evenodd" d="M8.00057 14.5001C7.83729 15.1293 7.83699 15.1292 7.83667 15.1291L7.83436 15.1285L7.83031 15.1274L7.81884 15.1243C7.80973 15.1218 7.79771 15.1184 7.78291 15.1141C7.75331 15.1054 7.7126 15.0929 7.6619 15.0762C7.56057 15.0428 7.41906 14.9921 7.24665 14.9202C6.90221 14.7766 6.43189 14.5472 5.91112 14.1992C4.86725 13.5015 3.61988 12.3259 2.78656 10.419C2.37299 9.47266 2.27979 8.45628 2.27979 7.5192V4.13223C2.27979 3.88957 2.41495 3.66711 2.63033 3.55532L7.2404 1.16234C7.71699 0.914961 8.28414 0.91496 8.76073 1.16234L13.3708 3.55532C13.5862 3.66711 13.7213 3.88957 13.7213 4.13223V7.4774C13.7213 8.44228 13.6229 9.49323 13.1783 10.4629C12.3405 12.2901 11.1041 13.4518 10.0777 14.1554C9.56488 14.5069 9.10271 14.7454 8.76486 14.8973C8.59574 14.9733 8.45717 15.0279 8.35819 15.0643C8.30868 15.0825 8.26901 15.0962 8.2403 15.1058C8.22594 15.1105 8.21432 15.1143 8.20557 15.1171L8.19462 15.1205L8.19079 15.1217L8.18929 15.1221C8.189 15.1222 8.18807 15.1225 8.00057 14.5001ZM8.16181 2.31616C8.06072 2.26369 7.94041 2.26369 7.83932 2.31616L3.57979 4.52718V7.5192C3.57979 8.38521 3.66932 9.19261 3.97778 9.89845C4.6936 11.5365 5.75544 12.5315 6.63347 13.1183C7.07366 13.4125 7.46747 13.6038 7.74692 13.7203C7.84199 13.76 7.92353 13.7908 7.98879 13.814C8.05433 13.7884 8.13627 13.7545 8.23184 13.7116C8.5108 13.5862 8.90346 13.3842 9.34274 13.0831C10.2206 12.4814 11.2777 11.4891 11.9966 9.92109C12.3264 9.20182 12.4213 8.37056 12.4213 7.4774V4.52718L8.16181 2.31616Z" fill="black"/>
<path d="M8.00057 14.5001L8.18807 15.1225C8.07398 15.1569 7.95201 15.159 7.83667 15.1291L8.00057 14.5001Z" fill="black"/>
</svg>

<svg xmlns="http://www.w3.org/2000/svg" width="16" height="16" fill="none" viewBox="0 0 16 16"><path fill="#000" fill-rule="evenodd" d="m7.8367 15.129-.0023-.0006-.004-.0011-.0116-.0031-.0359-.0103a4 4 0 0 1-.121-.0378 6 6 0 0 1-.4152-.156c-.3445-.1436-.8148-.373-1.3356-.7211-1.0438-.6976-2.2912-1.8732-3.1245-3.7801-.4136-.9464-.5068-1.9627-.5068-2.8998V4.132a.65.65 0 0 1 .3505-.577l4.6101-2.3929a1.65 1.65 0 0 1 1.5203 0l4.6101 2.393a.65.65 0 0 1 .3505.5769v3.3452c0 .9649-.0984 2.0158-.543 2.9855-.8378 1.8272-2.0742 2.9889-3.1006 3.6925-.5128.3515-.975.59-1.3128.7418a6.3 6.3 0 0 1-.4067.1671 4 4 0 0 1-.1526.0527l-.011.0035-.0038.0011-.0015.0005c-.0003.0001-.0012.0003-.1725-.5682l.1713.5686a.653.653 0 0 1-.3514.0066m.0026-12.813a.35.35 0 0 1 .3225 0l4.2595 2.211v2.9503c0 .8931-.0949 1.7244-.4247 2.4437-.7189 1.5679-1.776 2.5603-2.6539 3.162-.4392.3011-.8319.503-1.1109.6284a5 5 0 0 1-.243.1025 5 5 0 0 1-.2419-.0937c-.2794-.1165-.6732-.3078-1.1134-.602-.878-.5868-1.9399-1.5819-2.6557-3.2199-.3085-.7058-.398-1.5132-.398-2.3792V4.527zm-.514 4.0809c-.1483.114-.2099.2425-.2099.3774 0 .1489.0334.2368.068.2927.0358.0577.0963.1188.205.177.1458.0781.2909.106.5478.106a.7.7 0 0 1 .0458.0016c.328.009.676.0618 1.0433.2585.2715.1454.519.3522.6962.6383.1782.2878.2628.6194.2628.9773 0 .6113-.3114 1.0958-.7173 1.4079-.2172.1671-.4676.2912-.7312.3694v.3303a.65.65 0 1 1-1.3 0v-.3178c-.548-.1561-.9961-.5167-1.3157-1.0093a.65.65 0 0 1 1.0907-.7075c.2256.348.5103.5026.8527.5026.2281 0 .4544-.0777.611-.1981.1483-.1141.2098-.2425.2098-.3775 0-.1488-.0333-.2367-.068-.2926-.0357-.0577-.0962-.1189-.2049-.177-.1459-.0782-.291-.106-.5479-.106a.7.7 0 0 1-.0457-.0017c-.328-.009-.676-.0617-1.0433-.2585-.2715-.1454-.519-.3522-.6961-.6382-.1784-.2878-.263-.6195-.263-.9774 0-.6113.3115-1.0957.7173-1.4079.2095-.1611.45-.2823.7031-.3608v-.339a.65.65 0 1 1 1.3 0v.3101c.5608.1517 1.0189.5162 1.3439 1.0171a.65.65 0 0 1-1.0907.7075c-.2257-.3479-.5103-.5026-.8528-.5026-.228 0-.4543.0778-.6109.1982"/></svg>
